build/img/prize_icon.svg

<svg width="33" height="32" viewBox="0 0 33 32" fill="none" xmlns="http://www.w3.org/2000/svg">
<path d="M3.02752 32H15.6422V18.2716H3.02752V32ZM31.3853 8.69136H24.0183C24.5229 8.39506 25.0275 8.19753 25.4312 7.90123C27.0459 6.81481 27.8532 5.33333 27.8532 3.95062C27.8532 2.76543 27.2477 1.77777 26.4404 1.08641C25.633 0.395053 24.5229 0 23.4128 0C22.2018 0 20.9908 0.395053 20.0826 1.08641C18.5688 2.07406 17.4587 3.55555 16.6514 5.1358C16.6514 5.23456 16.5505 5.33333 16.5505 5.33333C16.2477 4.74073 15.945 4.14814 15.5413 3.55555C14.8349 2.56789 14.0275 1.679 13.0183 1.08641C12.0092 0.493818 10.8991 0 9.68807 0C8.47706 0 7.36697 0.49383 6.45871 1.28395C5.65137 2.07408 5.04587 3.16049 5.04587 4.34567C5.04587 5.03703 5.2477 5.82715 5.65137 6.51851C6.25687 7.4074 7.06422 8.09877 8.27523 8.69136H1.61467C0.706413 8.69136 0 9.38271 0 10.2716V16.0988H15.5413V8.69136H17.4587V16.0988H33V10.2716C33 9.38271 32.2936 8.69136 31.3853 8.69136ZM8.88073 6.41975C8.27522 6.02469 7.87155 5.62962 7.66972 5.33333C7.46788 4.93826 7.36696 4.64197 7.36696 4.34567C7.36696 3.85184 7.56881 3.35802 8.0734 2.86419C8.47707 2.46913 9.08256 2.17284 9.68807 2.17284C10.3945 2.17284 11.1009 2.37036 11.7064 2.86419C12.7156 3.55555 13.7248 4.64196 14.3303 6.02468C14.633 6.71604 14.9358 7.4074 15.1376 8.09876C12.0092 7.80246 9.99082 7.11111 8.88073 6.41975ZM19.4771 4.8395C20.0826 4.04938 20.6881 3.35802 21.3945 2.96296C22.1009 2.46914 22.8073 2.27161 23.4128 2.27161C24.0183 2.27161 24.5229 2.46914 24.9266 2.76543C25.3303 3.06173 25.5321 3.45679 25.5321 3.95062C25.5321 4.44444 25.2294 5.23456 24.0183 6.02468C22.9083 6.8148 20.8899 7.7037 17.8624 8.29629C18.1651 7.1111 18.7706 5.82715 19.4771 4.8395ZM17.4587 32H30.0734V18.2716H17.4587V32Z" fill="#63D1BB"/>
</svg>

<svg width="33" height="32" fill="none" xmlns="http://www.w3.org/2000/svg"><path d="M3.028 32h12.614V18.272H3.028V32zM31.385 8.691h-7.367c.505-.296 1.01-.493 1.413-.79 1.615-1.086 2.422-2.568 2.422-3.95 0-1.186-.605-2.173-1.413-2.865C25.633.396 24.523 0 23.413 0c-1.211 0-2.422.395-3.33 1.086-1.514.988-2.624 2.47-3.432 4.05 0 .099-.1.197-.1.197-.303-.592-.606-1.185-1.01-1.777-.706-.988-1.514-1.877-2.523-2.47C12.01.494 10.9 0 9.688 0c-1.21 0-2.321.494-3.23 1.284-.807.79-1.412 1.876-1.412 3.062 0 .691.202 1.481.605 2.173.606.888 1.413 1.58 2.624 2.172h-6.66C.706 8.691 0 9.383 0 10.271V16.1h15.541V8.69h1.918V16.1H33v-5.827c0-.89-.706-1.58-1.615-1.58zM8.881 6.42c-.606-.395-1.01-.79-1.211-1.087-.202-.395-.303-.691-.303-.987 0-.494.202-.988.706-1.482.404-.395 1.01-.691 1.615-.691.707 0 1.413.197 2.018.691a7.6 7.6 0 012.624 3.16c.303.692.606 1.383.808 2.075-3.129-.297-5.147-.988-6.257-1.68zm10.596-1.58c.606-.79 1.211-1.482 1.918-1.877.706-.494 1.412-.691 2.018-.691.605 0 1.11.197 1.514.493.403.297.605.692.605 1.186 0 .493-.303 1.284-1.514 2.074-1.11.79-3.128 1.679-6.156 2.271a10.88 10.88 0 011.615-3.456zM17.46 32h12.614V18.272H17.46V32z" fill="#63D1BB"/></svg>
